assets/images/avatars/user/custom-avatars/season-f1/podium-blue400.svg

<svg width="52" height="52" viewBox="0 0 52 52" fill="none" xmlns="http://www.w3.org/2000/svg">
<g clip-path="url(#clip0_26_81612)">
<rect width="52" height="52" fill="#0185FF"/>
<path d="M26 52C40.3594 52 52 40.3594 52 26C52 11.6406 40.3594 0 26 0C11.6406 0 0 11.6406 0 26C0 40.3594 11.6406 52 26 52Z" fill="#0185FF"/>
<path d="M25.9999 46.7669C37.4691 46.7669 46.7667 37.4693 46.7667 26.0002C46.7667 14.531 37.4691 5.2334 25.9999 5.2334C14.5308 5.2334 5.23315 14.531 5.23315 26.0002C5.23315 37.4693 14.5308 46.7669 25.9999 46.7669Z" fill="#0185FF" stroke="#002140" stroke-width="0.65" stroke-miterlimit="10"/>
<path d="M43.375 23.0752V25.7783H32.1367V23.0752H43.375Z" fill="#B0D9FF"/>
<path d="M31.9531 14.4434V17.233H31.607H20.7148V14.4434H31.9531Z" fill="#B0D9FF"/>
<path d="M20.5315 20.7285V23.3832H20.0435H9.45589H9.29321V20.7285H20.5315Z" fill="#B0D9FF"/>
<path d="M20.5315 23.3838V33.6633H9.29321V23.3838H9.45589H20.0435H20.5315Z" fill="#5AB0FF"/>
<path d="M31.9531 17.2334V33.6634H20.7148V17.2334H31.607H31.9531Z" fill="#B0D9FF"/>
<path d="M43.375 25.7783V33.6628H32.1367V25.7783H43.375Z" fill="#5AB0FF"/>
<path d="M20.5315 23.3832V33.6628H9.29321V23.3832V20.7285H20.5315V23.3832Z" stroke="#002140" stroke-width="0.65" stroke-miterlimit="10"/>
<path d="M31.9531 17.233V33.663H20.7148V17.233V14.4434H31.9531V17.233Z" stroke="#002140" stroke-width="0.65" stroke-miterlimit="10"/>
<path d="M43.375 25.7783V33.6628H32.1367V25.7783V23.0752H43.375V25.7783Z" stroke="#002140" stroke-width="0.65" stroke-miterlimit="10"/>
<path d="M9.45581 23.3838H20.0434" stroke="#002140" stroke-width="0.65" stroke-miterlimit="10"/>
<path d="M20.6941 17.2334H20.7149H31.607" stroke="#002140" stroke-width="0.65" stroke-miterlimit="10"/>
<path d="M32.4204 25.7783H43.3334" stroke="#002140" stroke-width="0.65" stroke-miterlimit="10"/>
<path d="M25.3745 24.0481H24.2065V20.8099H23.3742V19.9706C24.0736 19.9706 24.3954 19.7468 24.4583 19.1523H25.3745V24.0481Z" fill="#002140"/>
<path d="M14.5891 29.9528H10.9941V28.9597C12.6167 27.8826 13.3581 27.2322 13.3581 26.5957C13.3581 26.239 13.1413 26.0222 12.7986 26.0222C12.4069 26.0222 12.1971 26.295 12.1901 26.7216H11.0221C11.0221 25.6865 11.7565 24.9731 12.8056 24.9731C13.9036 24.9731 14.5261 25.5816 14.5261 26.4698C14.5261 27.435 13.8197 28.0365 12.7007 28.8688H14.5891V29.9528Z" fill="#002140"/>
<path d="M36.986 29.4113C37.4686 29.5232 37.8602 29.9149 37.8602 30.4604C37.8602 31.4256 37.0909 32.0131 36.0138 32.0131C34.9297 32.0131 34.2303 31.5165 34.1394 30.4534H35.3074C35.4123 30.866 35.6501 31.0059 36.0488 31.0059C36.3775 31.0059 36.6852 30.8521 36.6852 30.4534C36.6852 30.1457 36.4824 29.9498 36.0558 29.9498H35.5312V29.0126H36.0068C36.4824 29.0126 36.6503 28.7958 36.6503 28.4461C36.6503 28.1104 36.3565 27.9565 36.0348 27.9565C35.6711 27.9565 35.4193 28.1174 35.3424 28.5091H34.1744C34.2653 27.5159 34.9507 26.9494 36.0628 26.9494C37.0699 26.9494 37.7973 27.5019 37.7973 28.3622C37.7973 28.9357 37.4476 29.2784 36.986 29.4113Z" fill="#002140"/>
</g>
<defs>
<clipPath id="clip0_26_81612">
<rect width="52" height="52" fill="white"/>
</clipPath>
</defs>
</svg>

<svg xmlns="http://www.w3.org/2000/svg" width="52" height="52" fill="none" viewBox="0 0 52 52"><g clip-path="url(#a)"><path fill="#0185ff" d="M0 0h52v52H0z"/><path fill="#0185ff" d="M26 52c14.36 0 26-11.64 26-26S40.36 0 26 0 0 11.64 0 26s11.64 26 26 26"/><path fill="#0185ff" stroke="#002140" stroke-miterlimit="10" stroke-width=".65" d="M26 46.767c11.47 0 20.767-9.298 20.767-20.767S37.469 5.233 26 5.233C14.53 5.233 5.233 14.531 5.233 26c0 11.47 9.298 20.767 20.767 20.767Z"/><path fill="#b0d9ff" d="M43.375 23.075v2.703H32.137v-2.703zm-11.422-8.632v2.79H20.715v-2.79zm-11.421 6.286v2.654H9.293V20.73z"/><path fill="#5ab0ff" d="M20.532 23.384v10.28H9.293v-10.28z"/><path fill="#b0d9ff" d="M31.953 17.233v16.43H20.715v-16.43z"/><path fill="#5ab0ff" d="M43.375 25.778v7.885H32.137v-7.885z"/><path stroke="#002140" stroke-miterlimit="10" stroke-width=".65" d="M20.532 23.383v10.28H9.293V20.729h11.239zm11.421-6.15v16.43H20.715v-19.22h11.238zm11.422 8.545v7.885H32.137V23.075h11.238zM9.456 23.384h10.587m.651-6.151h10.913m.813 8.545h10.913"/><path fill="#002140" d="M25.375 24.048h-1.169V20.81h-.832v-.84c.7 0 1.021-.223 1.084-.818h.917zM14.59 29.953h-3.596v-.993c1.623-1.077 2.364-1.728 2.364-2.364 0-.357-.217-.574-.56-.574-.391 0-.6.273-.608.7h-1.168c0-1.036.735-1.749 1.784-1.749 1.098 0 1.72.609 1.72 1.497 0 .965-.706 1.567-1.825 2.399h1.888zm22.396-.542c.483.112.874.504.874 1.05 0 .965-.77 1.552-1.846 1.552-1.084 0-1.784-.496-1.875-1.56h1.168c.105.413.343.553.742.553.328 0 .636-.154.636-.553 0-.307-.203-.503-.63-.503h-.524v-.937h.476c.475 0 .643-.217.643-.567 0-.336-.294-.49-.615-.49-.364 0-.616.161-.693.553h-1.168c.091-.993.777-1.56 1.889-1.56 1.007 0 1.734.553 1.734 1.413 0 .574-.35.916-.811 1.05"/></g><defs><clipPath id="a"><path fill="#fff" d="M0 0h52v52H0z"/></clipPath></defs></svg>
